X: 10444
T: SAILOR SET ON SHORE
C:
%R: reel
B: Elias Howe "The Musician's Companion" Part 1 1842 p.44 #4
S: http://imslp.org/wiki/The_Musician's_Companion_(Howe,_Elias)
Z: 2015 John Chambers <jc:trillian.mit.edu>
M: C|
L: 1/8
K: Gm
% - - - - - - - - - - - - - - - - - - - - - - - - -
|:\
BAGF DGGB | AFcF dFcF | BAGF DGGA | BABc dgga |\
bgaf gdde | fdcB AFF2 | BAGF DGGA | BdcA BGG2 :|
|:\
G2g2 gagf | F2f2 fgfd | E2g2 G2ga | bgaf dgga |\
bggf gdde | fdcB AFF2 | BAGF DGGA | BdcA BGG2 :|
% - - - - - - - - - - - - - - - - - - - - - - - - -


